flaticon/productivity-and-development/email.svg

<svg xmlns="http://www.w3.org/2000/svg" width="32" height="32" viewBox="0 0 24 24">
    <path d="M 23.796875 8.707031 L 12.304688 0.101562 C 12.125 -0.0351562 11.875 -0.0351562 11.695312 0.101562 L 0.203125 8.707031 C 0.0742188 8.804688 0 8.957031 0 9.117188 L 0 23.488281 C 0 23.769531 0.230469 24 0.511719 24 L 23.488281 24 C 23.769531 24 24 23.769531 24 23.488281 L 24 9.117188 C 24 8.957031 23.925781 8.804688 23.796875 8.707031 Z M 12 1.148438 L 22.636719 9.117188 L 19.097656 11.769531 L 19.097656 6.910156 L 4.902344 6.910156 L 4.902344 11.769531 L 1.363281 9.117188 Z M 18.078125 12.53125 L 12 17.085938 L 5.921875 12.53125 L 5.921875 7.929688 L 18.078125 7.929688 Z M 1.019531 22.980469 L 1.019531 10.136719 L 11.695312 18.132812 C 11.957031 18.316406 12.214844 18.199219 12.304688 18.132812 L 22.980469 10.136719 L 22.980469 22.980469 Z M 1.019531 22.980469"/>
    <path d="M9.078125 9.71875L15.015625 9.71875 15.015625 10.742188 9.078125 10.742188zM9.078125 12.015625L15.015625 12.015625 15.015625 13.035156 9.078125 13.035156zM9.078125 12.015625"/>
</svg>

<svg xmlns="http://www.w3.org/2000/svg" width="32" height="32" viewBox="0 0 24 24">
    <path d="M23.797 8.707L12.305.102a.504.504 0 0 0-.61 0L.203 8.707a.514.514 0 0 0-.203.41v14.371c0 .282.23.512.512.512h22.976c.282 0 .512-.23.512-.512V9.118a.514.514 0 0 0-.203-.411zM12 1.148l10.637 7.97-3.54 2.652V6.91H4.903v4.86L1.363 9.117zm6.078 11.383L12 17.086 5.922 12.53V7.93h12.156zM1.02 22.981V10.136l10.675 7.996c.262.183.52.066.61 0l10.675-7.996V22.98zm0 0"/>
    <path d="M9.078 9.719h5.938v1.023H9.078zm0 0M9.078 12.016h5.938v1.02H9.078zm0 0"/>
</svg>
